X:1
T:Title
L:1/8
Q:1/4=100
M:4/4
K:G
V:1 treble nm="Grand Piano"
V:1
 B B2 B cBBA | AG B2 A4 | A A2 A BAAG | GF A2 G4 | G F2 E A2 A2 | GFGF E4 | E2 AG GFFE | E8 | %8
w: ????~???? * * * * * *||||||||
 B6 cB | AGBA A4 | A6 BA | GFAG G4 | G2 FE A2 A2 | GFGF E4 | E2 AG GFFE | E8 |] %16
w: ||||||||

